dist/assets/img/svg/icon-ru-active.svg

<svg width="48" height="48" viewBox="0 0 48 48" fill="none" xmlns="http://www.w3.org/2000/svg">
<g clip-path="url(#clip0_1046_410)">
<path d="M24 0C10.745 0 0 10.745 0 24C0 37.255 10.745 48 24 48C37.255 48 48 37.255 48 24C48 10.745 37.255 0 24 0Z" fill="#100943"/>
<mask id="mask0_1046_410" style="mask-type:alpha" maskUnits="userSpaceOnUse" x="0" y="0" width="48" height="48">
<path d="M24 0C10.745 0 0 10.745 0 24C0 37.255 10.745 48 24 48C37.255 48 48 37.255 48 24C48 10.745 37.255 0 24 0Z" fill="#58595B"/>
</mask>
<g mask="url(#mask0_1046_410)">
<path d="M37.0012 25.0001C45.0093 25.0001 51.5012 18.2843 51.5012 10.0001C51.5012 1.71579 45.0093 -5 37.0012 -5C28.9931 -5 22.5012 1.71579 22.5012 10.0001C22.5012 18.2843 28.9931 25.0001 37.0012 25.0001Z" fill="#ED143B"/>
</g>
<path d="M26.1741 24.7523H17.6254V21.1799H26.1741C26.6734 21.1799 27.0206 21.2718 27.1949 21.4323C27.3691 21.5928 27.4771 21.8905 27.4771 22.3254V23.6081C27.4771 24.0663 27.3691 24.364 27.1949 24.5245C27.0206 24.6851 26.6734 24.7523 26.1741 24.7523ZM26.7605 17.8119H14V33.0892H17.6254V28.1189H24.3067L27.4771 33.0892H31.5368L28.0415 28.0956C29.3302 27.8938 29.9087 27.4769 30.386 26.7895C30.8632 26.1022 31.1025 25.0033 31.1025 23.5368V22.3913C31.1025 21.5215 31.0153 20.8342 30.8632 20.3074C30.711 19.7806 30.451 19.3224 30.0818 18.9108C29.6916 18.5212 29.2572 18.2468 28.7357 18.063C28.2144 17.9025 27.5629 17.8119 26.7605 17.8119Z" fill="white"/>
</g>
<defs>
<clipPath id="clip0_1046_410">
<rect width="48" height="48" fill="white"/>
</clipPath>
</defs>
</svg>

<svg width="48" height="48" fill="none" xmlns="http://www.w3.org/2000/svg"><g clip-path="url(#clip0_1043_370)"><path d="M24 0C10.745 0 0 10.745 0 24s10.745 24 24 24 24-10.745 24-24S37.255 0 24 0z" fill="#58595B"/><path d="M26.174 24.752h-8.549V21.18h8.55c.498 0 .846.092 1.02.252.174.16.282.458.282.893v1.283c0 .458-.108.756-.282.916-.174.16-.522.228-1.02.228zm.587-6.94H14v15.277h3.625v-4.97h6.682l3.17 4.97h4.06l-3.495-4.994c1.288-.201 1.867-.618 2.344-1.306.477-.687.716-1.786.716-3.252V22.39c0-.87-.087-1.557-.239-2.084a3.522 3.522 0 00-.781-1.396 3.503 3.503 0 00-1.346-.848c-.522-.16-1.173-.251-1.976-.251z" fill="#fff"/><path d="M34.323 17.81c1.538 0 2.785-1.3 2.785-2.905 0-1.604-1.247-2.905-2.785-2.905s-2.785 1.3-2.785 2.905c0 1.604 1.247 2.905 2.785 2.905z" fill="#ED143B"/></g><defs><clipPath id="clip0_1043_370"><path fill="#fff" d="M0 0h48v48H0z"/></clipPath></defs></svg>
